X: 1
T: Mrs. Lawrie's
R: reel
M: 4/4
L: 1/8
K: Gdor
Bc|: d2cd BG3  | GDB,D G^FGA | B ~G3     AGAc | dggf g2ag  |
fd ~d2 gfdc | BB2c  A2Bc  | dBcA    B2Ac | B3A  GABc :|
d2cA BDAc | B3A   GBAG  | F3G     FC3  | FGAc d2cA  |
GABc dc3  | dcBA  BGGF  | DFFE    FGAc | dgfa g2Bc :|
dggf dggf | dggf  d2cB  | cf3     cfef | gfcA FABc  |
d3B  c3A  | B3G   AGFC  | G,A,B,C DGFG | AdcA GABc :|